mappFramework/Logical/mappView/Resources/Media/mappFrameworkSymbols/Alarm/AlarmStateInactiveAck.svg

<?xml version="1.0" encoding="UTF-8" standalone="no"?>
<svg
   version="1.1"
   id="Ebene_1"
   x="0px"
   y="0px"
   viewBox="0 0 32 32"
   style="enable-background:new 0 0 32 32;"
   width="32px"
   height="32px"
   class="br-symbol-library"
   sodipodi:docname="AlarmStateInactiveAck.svg"
   inkscape:version="1.2.1 (9c6d41e410, 2022-07-14)"
   xmlns:inkscape="http://www.inkscape.org/namespaces/inkscape"
   xmlns:sodipodi="http://sodipodi.sourceforge.net/DTD/sodipodi-0.dtd"
   xmlns="http://www.w3.org/2000/svg"
   xmlns:svg="http://www.w3.org/2000/svg">
  <defs
     id="defs17" />
  <sodipodi:namedview
     id="namedview15"
     pagecolor="#ffffff"
     bordercolor="#000000"
     borderopacity="0.25"
     inkscape:showpageshadow="2"
     inkscape:pageopacity="0.0"
     inkscape:pagecheckerboard="0"
     inkscape:deskcolor="#d1d1d1"
     showgrid="false"
     inkscape:zoom="26.15625"
     inkscape:cx="15.904421"
     inkscape:cy="16.019116"
     inkscape:window-width="1920"
     inkscape:window-height="1017"
     inkscape:window-x="1912"
     inkscape:window-y="-8"
     inkscape:window-maximized="1"
     inkscape:current-layer="Ebene_1" />
  <path
     d="m 22.766,26.369 -3.1,-5.247 c -1.142,-0.175 -2.21,-0.54 -3.157,-1.073 l 3.435,5.895 H 5.729 l 6.705,-11.5 c -0.162,-0.737 -0.244,-1.517 -0.244,-2.335 0,-0.455 0.03,-0.902 0.09,-1.34 -0.158,0.093 -0.293,0.225 -0.388,0.39 l -8.985,15.21 c -0.195,0.338 -0.193,0.847 0.002,1.182 0.195,0.337 0.552,0.642 0.943,0.642 H 21.82 c 0.39,0 0.747,-0.305 0.943,-0.642 0.194,-0.334 0.197,-0.845 0.003,-1.182 z"
     style="fill:#666666;paint-order:stroke;fill-opacity:1"
     id="path2" />
  <path
     d="M 13.528,17.194 H 12.11 c -0.2,0 -0.388,0.08 -0.388,0.28 v 1.362 c 0,0.15 0.035,0.45 0.065,0.595 l 0.493,2.572 c 0.03,0.147 0.2,0.44 0.35,0.44 h 0.425 c 0.152,0 0.333,-0.292 0.362,-0.44 l 0.477,-2.602 c 0.028,-0.145 0.077,-0.415 0.077,-0.565 v -0.99 c -0.249,-0.21 -0.309,-0.402 -0.443,-0.652 z"
     style="fill:#666666;paint-order:stroke;fill-opacity:1"
     id="path4" />
  <path
     d="m 21.335,3.967 c -4.055,0 -7.418,2.667 -8.04,6.75 -0.07,0.447 -0.105,0.913 -0.105,1.393 0,1.15 0.177,2.188 0.503,3.107 0.33,0.945 0.818,1.765 1.427,2.452 1.003,1.135 2.337,1.91 3.862,2.298 0.745,0.19 1.535,0.288 2.353,0.288 4.497,0 8.142,-3.648 8.142,-8.145 0,-4.497 -3.645,-8.143 -8.142,-8.143 z"
     style="fill:#008000;paint-order:stroke"
     id="path6" />
  <path
     d="m 27.002,9.514 -7.122,7.122 c -0.048,0.05 -0.112,0.073 -0.175,0.073 -0.063,0 -0.125,-0.023 -0.175,-0.073 l -1.595,-1.595 c -0.098,-0.098 -0.253,-0.253 -0.35,-0.345 l -1.92,-1.925 c -0.097,-0.098 -0.097,-0.253 0,-0.35 l 1.595,-1.595 c 0.05,-0.05 0.112,-0.072 0.175,-0.072 0.063,0 0.127,0.022 0.174,0.072 l 1.92,1.92 c 0.05,0.048 0.113,0.072 0.177,0.072 0.062,0 0.125,-0.025 0.173,-0.072 l 5.165,-5.165 c 0.05,-0.048 0.113,-0.073 0.175,-0.073 0.062,0 0.127,0.025 0.175,0.073 l 1.608,1.587 c 0.097,0.094 0.097,0.251 0,0.346 z"
     style="fill:#ffffff;paint-order:stroke"
     id="path8" />
  <path
     d="m 13.972,23.217 c 0,-0.151 -0.122,-0.273 -0.272,-0.273 h -1.706 c -0.15,0 -0.272,0.122 -0.272,0.273 v 1.705 c 0,0.151 0.122,0.273 0.272,0.273 h 1.705 c 0.15,0 0.272,-0.122 0.272,-0.273 z"
     style="fill:#666666;paint-order:stroke;fill-opacity:1"
     id="path10" />
  <g
     id="Ebene_1_1_" />
</svg>

<?xml version="1.0" encoding="utf-8"?>
<svg version="1.1" id="Ebene_1" x="0px" y="0px" viewBox="0 0 32 32" style="enable-background:new 0 0 32 32;" width="32px" height="32px" class="br-symbol-library" xmlns="http://www.w3.org/2000/svg">
  <g id="Acknowledge">
    <path d="M 22.766 26.369 L 19.666 21.122 C 18.524 20.947 17.456 20.582 16.509 20.049 L 19.944 25.944 L 5.729 25.944 L 12.434 14.444 C 12.272 13.707 12.19 12.927 12.19 12.109 C 12.19 11.654 12.22 11.207 12.28 10.769 C 12.122 10.862 11.987 10.994 11.892 11.159 L 2.907 26.369 C 2.7119999999999997 26.707 2.714 27.216 2.909 27.551 C 3.104 27.888 3.461 28.193 3.8520000000000003 28.193 L 21.82 28.193 C 22.21 28.193 22.567 27.888 22.763 27.551 C 22.957 27.217 22.96 26.706 22.766 26.369 Z" style="paint-order: stroke; fill: rgb(245, 245, 245);"/>
    <path d="M 13.528 17.194 L 12.11 17.194 C 11.91 17.194 11.722 17.274 11.722 17.474 L 11.722 18.836 C 11.722 18.986 11.757 19.286 11.786999999999999 19.431 L 12.28 22.003 C 12.31 22.15 12.48 22.443 12.63 22.443 L 13.055 22.443 C 13.207 22.443 13.388 22.151 13.417 22.003 L 13.894 19.401 C 13.922 19.256 13.971 18.986 13.971 18.836 L 13.971 17.846 C 13.722 17.636 13.661999999999999 17.444 13.528 17.194 Z" style="paint-order: stroke; fill: rgb(245, 245, 245);"/>
    <path d="M 21.335 3.967 C 17.28 3.967 13.917 6.634 13.295 10.717 C 13.225 11.164 13.19 11.63 13.19 12.11 C 13.19 13.26 13.367 14.298 13.693 15.217 C 14.023 16.162 14.511 16.982 15.12 17.669 C 16.123 18.804 17.457 19.579 18.982 19.967 C 19.727 20.157 20.517 20.255 21.335 20.255 C 25.832 20.255 29.477 16.607 29.477 12.11 C 29.477 7.6129999999999995 25.832 3.967 21.335 3.967 Z" style="paint-order: stroke; fill: rgb(0, 128, 0);"/>
    <path d="M 27.002 9.514 L 19.88 16.636 C 19.832 16.686 19.768 16.709 19.705 16.709 C 19.642 16.709 19.58 16.686 19.53 16.636 L 17.935 15.041 C 17.837 14.943 17.682 14.788 17.585 14.696 L 15.665 12.771 C 15.568 12.673 15.568 12.518 15.665 12.421 L 17.26 10.826 C 17.31 10.776 17.372 10.754 17.435 10.754 C 17.498 10.754 17.562 10.776 17.609 10.826 L 19.529 12.746 C 19.579 12.794 19.642 12.818 19.706 12.818 C 19.768 12.818 19.831 12.793 19.879 12.746 L 25.044 7.5809999999999995 C 25.094 7.533 25.157 7.508 25.219 7.508 C 25.281 7.508 25.346 7.533 25.394 7.5809999999999995 L 27.002 9.168 C 27.099 9.262 27.099 9.419 27.002 9.514 Z" style="paint-order: stroke; fill: rgb(255, 255, 255);"/>
    <path d="M 13.972 23.217 C 13.972 23.066 13.85 22.944 13.7 22.944 L 11.994 22.944 C 11.844 22.944 11.722 23.066 11.722 23.217 L 11.722 24.922 C 11.722 25.073 11.844 25.195 11.994 25.195 L 13.699 25.195 C 13.849 25.195 13.971 25.073 13.971 24.922 L 13.972 23.217 Z" style="paint-order: stroke; fill: rgb(245, 245, 245);"/>
  </g>
  <g id="Ebene_1_1_"/>
</svg>
